mobile/24/svg/link-24.svg

<svg width="24" height="24" viewBox="0 0 24 24" fill="none" xmlns="http://www.w3.org/2000/svg">
<path d="M5.36993 13.2799C5.84994 13.7599 6.46993 14 7.09994 14L7.10995 14.0099C7.72994 14.0099 8.35995 13.7699 8.83993 13.2899L9.21993 12.9099L7.97994 11.67L7.59994 12.05C7.33993 12.32 6.87994 12.32 6.60995 12.05L3.96993 9.40994C3.67992 9.12003 3.67992 8.63992 3.96993 8.35001L8.34994 3.97C8.63995 3.67996 9.11993 3.67996 9.40993 3.97L12.0499 6.61002C12.1899 6.74002 12.2599 6.90994 12.2599 7.10001C12.2599 7.28995 12.1799 7.47 12.0499 7.60001L11.6699 7.98001L12.9099 9.22L13.2899 8.84C14.2499 7.87991 14.2499 6.32999 13.2899 5.37003L10.6499 2.73001C9.66994 1.75992 8.08993 1.75992 7.10995 2.73001L2.72994 7.10001C1.75994 8.07999 1.75994 9.65994 2.72994 10.6399L5.36993 13.2799Z" fill="black"/>
<path d="M9.06603 7.82108L7.82861 9.0585L14.935 16.1649L16.1725 14.9275L9.06603 7.82108Z" fill="black"/>
<path d="M15.12 22C14.48 22 13.84 21.76 13.35 21.2701L10.71 18.63C9.74999 17.6701 9.74999 16.12 10.71 15.1601L11.09 14.7801L12.33 16.0201L11.95 16.4001C11.82 16.5301 11.74 16.71 11.74 16.9001C11.74 17.09 11.81 17.26 11.95 17.39L14.59 20.0301C14.88 20.32 15.36 20.32 15.65 20.0301L20.03 15.6501C20.32 15.36 20.32 14.88 20.03 14.59L17.39 11.95C17.13 11.68 16.66 11.69 16.4 11.95L16.02 12.33L14.78 11.09L15.16 10.71C16.12 9.75003 17.67 9.75003 18.63 10.71L21.27 13.35C22.24 14.33 22.24 15.9101 21.27 16.89L16.89 21.2701C16.4 21.76 15.76 22 15.12 22Z" fill="black"/>
</svg>

<svg width="24" height="24" fill="none" xmlns="http://www.w3.org/2000/svg"><path d="M5.37 13.28c.48.48 1.1.72 1.73.72l.01.01c.62 0 1.25-.24 1.73-.72l.38-.38-1.24-1.24-.38.38c-.26.27-.72.27-.99 0L3.97 9.41a.754.754 0 0 1 0-1.06l4.38-4.38c.29-.29.77-.29 1.06 0l2.64 2.64c.14.13.21.3.21.49s-.08.37-.21.5l-.38.38 1.24 1.24.38-.38c.96-.96.96-2.51 0-3.47l-2.64-2.64c-.98-.97-2.56-.97-3.54 0L2.73 7.1c-.97.98-.97 2.56 0 3.54l2.64 2.64z" fill="#000"/><path d="M9.066 7.821 7.829 9.06l7.106 7.106 1.237-1.237L9.066 7.82z" fill="#000"/><path d="M15.12 22c-.64 0-1.28-.24-1.77-.73l-2.64-2.64a2.45 2.45 0 0 1 0-3.47l.38-.38 1.24 1.24-.38.38c-.13.13-.21.31-.21.5s.07.36.21.49l2.64 2.64c.29.29.77.29 1.06 0l4.38-4.38c.29-.29.29-.77 0-1.06l-2.64-2.64c-.26-.27-.73-.26-.99 0l-.38.38-1.24-1.24.38-.38a2.45 2.45 0 0 1 3.47 0l2.64 2.64c.97.98.97 2.56 0 3.54l-4.38 4.38c-.49.49-1.13.73-1.77.73z" fill="#000"/></svg>
